X:1
T:Title
%%score 1 { 2 | 3 }
L:1/8
Q:1/4=90
M:3/4
K:Bb
V:1 treble nm="Grand Piano, Soprano"
V:2 bass nm="Choir Pad, Barbuda, 88.88.88"
V:3 bass 
V:1
 [DF]2 [DF]>[DF] [_D=E][=DF] | [EG][EA] [DB]4 | [FB]2 [Fc]>[FB] [FA][Fc] | [=EB][EG] F4 | %4
w: By~Ira~David~Sankey,~1901 * * * *||||
 [DF]2 [EG]>[EG] [EG][FG] | [=EA][EB] [FA]4 | [^FA]2 [GB]>[GB] [GB][GB] | [DA][DB] [Fc]4 | %8
w: ||||
 F2 [Fd]>[Fd] [Fe][Fd] | [=Ec][_Ed] [DB]4 | F2 [CF]>[CF] F[DF] | [EG][EA] [DB]4- | [DB]4 z2 |] %13
w: |||||
V:2
 B,2 B,>B, G,B, | B,F, F,4 | D2 E>D CA, | G,B, A,4 | B,2 B,>B, B,=B, | CC C4 | D2 D>D DD | %7
 C[K:bass]B, A,4 | C2 B,>B, =B,B, | CA, B,4 | B,2 A,>A, B,B, | B,F, F,4- | F,4 z2 |] %13
V:3
 B,,2 B,,>B,, B,,B,, | B,,C, B,,4 | B,,2 A,,>B,, C,C, | C,C, F,4 | B,,2 E,>E, E,E, | C,C, F,4 | %6
 D,2 G,>G, G,G, | ^F,G, =F,4 | A,2 z2 G,G, | C,F, G,4 | D,2 F,>E, D,B,, | .E,2 B,,4- | B,,4 z2 |] %13

